X:1
T:baby
T:baby
T:Summer Walker
%%score { 1 2 { 3 | 4 } } 5
L:1/8
Q:1/4=85
M:4/4
K:C
V:1 treble nm="Piano" snm="Pno."
V:2 treble nm="Piano" snm="Pno."
V:3 treble nm="Piano" snm="Pno."
V:4 bass 
V:5 perc nm="Drumset" snm="D. Set"
K:none
I:percmap A A 43 normal
I:percmap ^c c 37 x
I:percmap ^g g 42 x
V:1
 z8 | z8 | z8 | z8 | z8 | z8 | z8 | z/ A,/C/A,/ ED/C/ D/A,/A,3/4 z2 z/4 | %8
w: |||||||You got my heart work- ing o- ver- time|
 z/ A,/C/A,/ ED/C/ DA,3/2 z3/2 | z2 D/E/D/C/ C/D<D z3/2 | z/ G,3/4A,3/4 C3/2 z2 z/ D/E/D/ z/ | %11
w: You got my mind go- ing cra- zy|Ei- ther way, long you a- live,|You my b- a- b- y|
 z C/A,/ ED/C/ D/A,/A,3/4 z/4 z2 | z C/A,/ ED/C/ D/C/E/ z/ z2 | z2 D/E/D/C/ C/D<D z3/2 | %14
w: Said my heart work- ing o- ver- time|Got my mind go- ing c- ra- zy|Ei- ther way, long you a- live,|
 z/ C3/4D3/4 E3/4D3/4 z/ C2 D2 | D2 B, B,2 z3 | z/ E3/4F3/4 G3/4E3/4F3/4G3/4E3/4F3/4G3/2 | %17
w: You my b- a- b- y|(woah- oh- oh)|But I know, but I know, but I know|
 A2 ED/C/ z2 z D- | D/B,/A,/G,/ A,/G,/ z2 z3/2 ED/- | D/E/ z z3/2 A,/ D2 D>D- | %20
w: you're- mi- i- ine Ye-|e- a- a- a- * ah Hey ba-|a- by, And I just ca-|
 D3/8C/C/D/C3/4D3/4 z/8 z/ DD D/E/D/D/- | D3/4C/E3/4 C/D/ z z4 | z2 C/D/ z4 G- | %23
w: n't get ri- ght to it If you le- ave I ju-|st mi- ght lose it,|lose it, o-|
 GF/E/ D/E/D/ z2 z/ G3/4E3/4G/- | G/E/G/E/ E/D/ z D/C/D/C/ E>D- | D/C/E C/D/ z z4 | z8 | z8 | z8 | %29
w: o- o- o- o- o- oh I just ca-|n't get ri- ght to it, Ba- by if you leave I|* just might lose it||||
 z8 | z8 | z8 | z8 |] %33
w: ||||
V:2
 z8 | z8 | z8 | z8 | z8 | z8 | z8 | z8 | z8 | z2 F/G/F/E/ E/F<F z3/2 | z8 | z8 | z4 z3 G- | %13
w: |||||||||(Ei- ther way, long you a- live)|||(Oo-|
 G z F/G/F/E/ E/F<F z3/2 | z2 F3/4E3/4 z/ z2 A2 | A2 D D2 z3 | %16
w: h) (Ei- ther way, long you a- live)|(b- a- by)|(woah- oh- oh)|
 z/ G,3/4A,3/4 C3/4C3/4D3/4E3/4C3/4D3/4E3/2 | F2 DD3/2 z3/2 z2 | z8 | z2 [DG]4 z2 | z2 [DG]4 z2 | %21
w: (But I know, but I know, but I know|you're mi- ne)||(Ooh)|(Ooh)|
 G2 E4 z2 | z8 | z2 [DGB]4 z2 | z2 [DGA]4 z2 | A2 ED z4 | z D/E/ D/E/c BA G>E- | E/ z/ z z2 z4 | %28
w: (Ooh, ooh)||(Ooh)|(Ooh)|(Oh o- oh)|(Ah- e- a- ah, wo- o- o- o- o-|ah)|
 z8 | z8 | z8 | z8 | z8 |] %33
w: |||||
V:3
 [EB]6 [DA]2- | [DA]4 [Ec]4- | [Ec]4- [Ec]4- | [Ec]2 z [GB] [GB][GB][GB][GB] | %4
 [GB][GB][GB][GB] [GB][GB][GB][GB] | [GB][GB][Ac][Ac] [Ac][Ac][Ac][Ac] | %6
 [Ac][Ac][Ac][Ac] [Ac][Ac][Ac][Ac] | [Ac][Ac][GB][GB] [GB][GB][GB][GB] | %8
 [GB][GB][GB][GB] [GB][GB][GB][GB] | [GB][GB][Ac][Ac] [Ac][Ac][Ac][Ac] | %10
 [Ac][Ac][Ac][Ac] [Ac][Ac][Ac][Ac] | [Ac][Ac][GB][GB] [GB][GB][GB][GB] | %12
 [GB][GB][GB][GB] [GB][GB][GB][GB] | [GB][GB][Ac][Ac] [Ac][Ac][Ac][Ac] | %14
 [Ac][Ac][Ac][Ac] [Ac][Ac][Ac][Ac] | [Ac][Ac][GB][GB] [GB][GB][GB][GB] | %16
 [GB][GB][GB][GB] [GB][GB][GB][GB] | [GB][GB][Ac][Ac] [Ac][Ac][Ac][Ac] | %18
 [Ac][Ac][Ac][Ac] [Ac][Ac][Ac][Ac] | [Ac][Ac] z z z z z z | z8 | z8 | z8 | z8 | z8 | z8 | z8 | z8 | %28
 z8 | z8 | z8 | z8 | z8 |] %33
V:4
 z8 | z8 | z8 | z2 C,,E,, G,, B,,2 A,,- | A,,G,,C,,E,, G,, B,,2 A,,- | A,,G,,D,,G,, A,, C,2 B,,- | %6
 B,,A,,D,,G,, A,, D,2 D,- | D,C,C,,E,, G,, B,,2 A,,- | A,,G,,C,,E,, G,, B,,2 A,,- | %9
 A,,G,,D,,G,, A,, E,2 D,- | D,C,D,,G,, A,, E,2 D,- | D,C,C,,E,, G,, B,,2 A,,- | %12
 A,,G,,C,,E,, G,, B,,2 A,,- | A,,G,,D,,E,, A,, C,2 B,,- | B,,A,,D,,G,, A,, D,2 D,- | %15
 D,C,C,,E,, G,, B,,2 A,,- | A,,G,,C,,E,, G,, B,,2 A,,- | A,,G,,D,,E,, A,, D,2 D,- | %18
 D,A,,D,,G,, A,, E,2 D,- | D,C,F,,C, D, F,2 E,- | E, z F,,C, D, F,2 E,- | E,C,E,,A,, C, E,2 D,- | %22
 D,C,E,,A,, C, E,2 D,- | D,C,F,,C, D, F,2 E,- | E, z F,,C, D, F,2 E,- | E,C,E,,A,, C, E,2 D,- | %26
 D,C,E,,A,, C, E,2 D,- | D,C,F,,C, D, F,2 E,- | E, z F,,C, D, F,2 E,- | E, z E,,A,, C, E,2 D,- | %30
 D, z E,,A,, C, E,2 D, | z8 | z8 |] %33
V:5
 z8 | z8 | z8 | z2 ^gA ^c^g^gA | ^c^g^gA ^c^g^gA | ^c^g^gA ^c^g^gA | ^c^g^gA ^c^g^gA | %7
 ^c^g^gA ^c^g^gA | ^c^g^gA ^c^g^gA | ^c^g^gA ^c^g^gA | ^c^g^gA ^c^g^gA | ^c^g^gA ^c^g^gA | %12
 ^c^g^gA ^c^g^gA | ^c^g^gA ^c^g^gA | ^c^g^gA ^c^g^gA | ^c^g^gA ^c^g^gA | ^c^g^gA ^c^g^gA | %17
 ^c^g^gA ^c^g^gA | ^c^g^gA ^c^g^gA | ^c^g^gA ^c^g^gA | ^c^g^gA ^c^g^gA | ^c^g^gA ^c^g^gA | %22
 ^c^g^gA ^c^g^gA | ^c^g^gA ^c^g^gA | ^c^g^gA ^c^g^gA | ^c^g^gA ^c^g^gA | ^c^g^gA ^c^g^gA | %27
 ^c^g^gA ^c^g^gA | ^c^g^gA ^c^g^gA | ^c^g^gA ^c^g^gA | ^c^g^gA ^c^g^gA | z8 | z8 |] %33

